src/people-body/body-parts/1F9B7.svg

<svg id="emoji" viewBox="0 0 72 72" xmlns="http://www.w3.org/2000/svg">
  <g id="grid">
    <path fill="#b3b3b3" d="M68,4V68H4V4H68m4-4H0V72H72V0Z"/>
    <path fill="none" stroke="#00a5ff" stroke-miterlimit="10" stroke-width="0.1" d="M12.923,10.9583H59.0769A1.9231,1.9231,0,0,1,61,12.8814V59.0352a1.9231,1.9231,0,0,1-1.9231,1.9231H12.9231A1.9231,1.9231,0,0,1,11,59.0352V12.8813A1.923,1.923,0,0,1,12.923,10.9583Z"/>
    <rect x="16" y="4" rx="2.2537" width="40" height="64" fill="none" stroke="#00a5ff" stroke-miterlimit="10" stroke-width="0.1"/>
    <rect x="16" y="4" rx="2.2537" width="40" height="64" transform="translate(72) rotate(90)" fill="none" stroke="#00a5ff" stroke-miterlimit="10" stroke-width="0.1"/>
    <circle cx="36" cy="36" r="29" fill="none" stroke="#00a5ff" stroke-miterlimit="10" stroke-width="0.1"/>
  </g>
  <g id="color">
    <path id="Tooth_Color_1" fill="#fff" d="M56.8463,18.7956a11.6415,11.6415,0,0,0-10.55-5.0124c-4.808.5457-6.061,2.7647-10.3573,3.1882-4.2963-.4234-5.5494-2.6425-10.3574-3.1882a11.6418,11.6418,0,0,0-10.55,5.0124C12.2738,23.008,12.8791,29.3,16.8442,34.1143A6.0923,6.0923,0,0,1,18.2876,37.74c.2378,6.1213,1.402,23.3418,6.9884,24.5078,4.3092.8994,2.0308-19.6965,10.663-19.43,8.6321-.2667,6.3537,20.3292,10.6628,19.43,5.5865-1.166,6.7508-18.3865,6.9885-24.5078a6.0917,6.0917,0,0,1,1.4434-3.6257C58.9988,29.3,59.6042,23.008,56.8463,18.7956Z"/>
    <path id="Tooth_Color_2" fill="#d0cfce" d="M56.8463,18.7956C55.5935,16,44.3716,11.1092,46.2963,13.7832c3.06,4.2513,4.207,12.2312,3.2562,20.9215-.8172,7.4687-5.476,23.8776-5.476,23.8776-.3641,2.2321.97,4.2074,1.83,4.071C48.2821,62.2764,53.8425,55.04,53.59,37.74a5.6745,5.6745,0,0,1,1.4434-3.6257A14.41,14.41,0,0,0,56.8463,18.7956Z"/>
  </g>
  <g id="line">
    <path id="Tooth_Line_1" fill="none" stroke="#000" stroke-miterlimit="10" stroke-width="2" d="M56.8463,18.7956a11.6415,11.6415,0,0,0-10.55-5.0124c-4.808.5457-6.061,2.7647-10.3573,3.1882-4.2963-.4234-5.5494-2.6425-10.3574-3.1882a11.6418,11.6418,0,0,0-10.55,5.0124C12.2738,23.008,12.8791,29.3,16.8442,34.1143A6.0923,6.0923,0,0,1,18.2876,37.74c.2378,6.1213,1.402,23.3418,6.9884,24.5078,4.3092.8994,2.0308-19.6965,10.663-19.43,8.6321-.2667,6.3537,20.3292,10.6628,19.43,5.5865-1.166,6.7508-18.3865,6.9885-24.5078a6.0917,6.0917,0,0,1,1.4434-3.6257C58.9988,29.3,59.6042,23.008,56.8463,18.7956Z"/>
  </g>
</svg>

<svg viewBox="0 0 72 72" xmlns="http://www.w3.org/2000/svg"><path fill="#b3b3b3" d="M68 4v64H4V4h64m4-4H0v72h72V0z"/><path fill="none" stroke="#00a5ff" stroke-miterlimit="10" stroke-width=".1" d="M12.923 10.958h46.154A1.923 1.923 0 0161 12.881v46.154a1.923 1.923 0 01-1.923 1.923H12.923A1.923 1.923 0 0111 59.035V12.881a1.923 1.923 0 011.923-1.923z"/><rect x="16" y="4" rx="2.254" width="40" height="64" fill="none" stroke="#00a5ff" stroke-miterlimit="10" stroke-width=".1"/><rect x="16" y="4" rx="2.254" width="40" height="64" transform="rotate(90 36 36)" fill="none" stroke="#00a5ff" stroke-miterlimit="10" stroke-width=".1"/><circle cx="36" cy="36" r="29" fill="none" stroke="#00a5ff" stroke-miterlimit="10" stroke-width=".1"/><path d="M56.846 18.796a11.642 11.642 0 00-10.55-5.013c-4.808.546-6.06 2.765-10.357 3.188-4.296-.423-5.55-2.642-10.357-3.188a11.642 11.642 0 00-10.55 5.013c-2.758 4.212-2.153 10.504 1.812 15.318a6.092 6.092 0 011.444 3.626c.237 6.121 1.402 23.342 6.988 24.508 4.31.9 2.03-19.697 10.663-19.43 8.632-.267 6.354 20.329 10.663 19.43 5.586-1.166 6.75-18.387 6.988-24.508a6.092 6.092 0 011.444-3.626c3.965-4.814 4.57-11.106 1.812-15.318z" stroke-linecap="round" stroke-miterlimit="10" stroke-width="6" stroke="#fff" fill="none" stroke-linejoin="round"/><path fill="#fff" d="M56.846 18.796a11.642 11.642 0 00-10.55-5.013c-4.808.546-6.06 2.765-10.357 3.188-4.296-.423-5.55-2.642-10.357-3.188a11.642 11.642 0 00-10.55 5.013c-2.758 4.212-2.153 10.504 1.812 15.318a6.092 6.092 0 011.444 3.626c.237 6.121 1.402 23.342 6.988 24.508 4.31.9 2.03-19.697 10.663-19.43 8.632-.267 6.354 20.329 10.663 19.43 5.586-1.166 6.75-18.387 6.988-24.508a6.092 6.092 0 011.444-3.626c3.965-4.814 4.57-11.106 1.812-15.318z"/><path fill="#d0cfce" d="M56.846 18.796c-1.252-2.796-12.474-7.687-10.55-5.013 3.06 4.252 4.207 12.231 3.257 20.922-.818 7.468-5.476 23.877-5.476 23.877-.365 2.232.97 4.208 1.83 4.071 2.375-.377 7.936-7.613 7.683-24.913a5.675 5.675 0 011.443-3.626 14.41 14.41 0 001.813-15.318z"/><g><path fill="none" stroke="#000" stroke-miterlimit="10" stroke-width="2" d="M56.846 18.796a11.642 11.642 0 00-10.55-5.013c-4.808.546-6.06 2.765-10.357 3.188-4.296-.423-5.55-2.642-10.357-3.188a11.642 11.642 0 00-10.55 5.013c-2.758 4.212-2.153 10.504 1.812 15.318a6.092 6.092 0 011.444 3.626c.237 6.121 1.402 23.342 6.988 24.508 4.31.9 2.03-19.697 10.663-19.43 8.632-.267 6.354 20.329 10.663 19.43 5.586-1.166 6.75-18.387 6.988-24.508a6.092 6.092 0 011.444-3.626c3.965-4.814 4.57-11.106 1.812-15.318z"/></g></svg>
